!!!COM: Chopin,	 
!!!CDT: 1810///-1849///	 
!!!OTL: Mazurka	 
!!!OPS: Op.	 
!!!ONM: No.	 
!!!OMD: Sotto	 
!!!ODT: 1830///-1832///	 
!!!PDT: 1832///-1833///	 
!!!PPP: Leipzig	 
!!!ODE: Pauline	 
!!!AIN: piano	 
**kern	**color
*staff1	*
*Ipiano	*
*>[I,A,A,B,B,C]	*
*>norep[I,A,B,C]	*
*>I	*
*clefG2	*
*k[f#c#g#d#]	*
*c#:	*
*M3/4	*
*MM189	*
=1-	=1-
*	*
4B#<	black
!!LO:TX:b:i:t=legato.	.
4A#<	black
8B#<L	black
8c#<J	black
*	*
=2	=2
*	*
8d#L	black
8B#J	black
4.c#^	black
8A#<	black
=3	=3
!!LO:TUP:b	.
12B#<L	black
12c#<	hotpink
12B#<J	hotpink
4A#<	black
8B#<L	black
8c#<J	black
=4	=4
(12d#L	black
12f#	black
12eJ)	hotpink
2d#	black
=5	=5
!!LO:TUP:b	.
(12B#<L	black
12c#<	hotpink
12B#<J)	hotpink
4A#<	black
(8B#<L	black
8c#<J	black
!!LO:LB:g=original	.
=6	=6
8d#L	black
8B#	black
(8qd#	.
8c#)	black
8B#	black
8c#	black
8A#J)	black
=7	=7
!!LO:TUP:b	.
12B#<L	black
12c#<	hotpink
12B#<J	hotpink
4A#<	black
4ryy	.
*	*
=8	=8
!!LO:TUP:b	.
12g#'L	black
12g#'	black
12g#'J	black
4g#	black
=!|:	=!|:
*>A	*
(4g#^>	black
=9	=9
*	*
8gg#L)	black
16r	.
(16aaJk	black
4.ff#	black
.	.
*	*
8gg#	black
=10	=10
*	*
8.eeL	black
16gg#Jk	black
4cc#	black
*	*
4ee	black
!!LO:LB:g=original	.
=11	=11
*	*
8.gg#L)	black
(16aaJk	black
4ff#)	black
*	*
4gg#^	black
=12	=12
*	*
(12eeL	black
12ff#	hotpink
12gg#J)	black
(8qgg#	.
4.cc#)	black
*	*
.	.
(8cc##	black
=13	=13
*	*
8dd#'L)	black
16r	.
(16eeJk	black
!!LO:N:acc=n#	.
4.cc#	black
.	.
*	*
8dd#	black
=14	=14
*	*
8.b#L	black
16dd#Jk	black
*	*
!!	.
4g#)	black
(4anT^	black
=15	=15
*	*
forza.	.
8g#'L)	black
16r	.
(16f#Jk	black
*	*
4d#)	black
4g#	black
=16	=16
*	*
(8qg#	.
2c#^)	black
.	.
*	*
!!LO:LB:g=original	.
=:|!|:	=:|!|:
*>B	*
!!LO:TX:b:i:t=leggiero.	.
(4c##	black
=17	=17
*	*
8d#L)	black
16rb	.
(16f##Jk	black
4g#	black
8b#L	black
*	*
8dd#J)	black
=18	=18
*	*
8d#'L	black
16rb	.
(16f##Jk	black
8g#L	black
8b#J	black
*	*
4dd#^)	black
=19	=19
*	*
8.cc##^L	black
(16a#Jk	black
4cc#')	black
(8b#L	black
8g#J)	black
=20	=20
(12cc##^L	black
12a#	black
12b#J)	hotpink
!!LO:N:acc=n#	.
4cc#	black
(8b#L	black
8g#J)	black
*	*
=21	=21
*	*
8d#L	black
16rb	.
16f##Jk	black
(4g#	black
8b#L	black
*	*
8dd#J)	black
!!LO:LB:g=original	.
=22	=22
*	*
8d#L	black
16r	.
(16f##Jk	black
8g#L	black
8b#J	black
*	*
4dd#^)	black
=23	=23
*	*
(8cc##L	black
8a#J	black
!!LO:N:acc=n#	.
4cc#	black
8b#L)	black
(8g#J	black
*	*
=24	=24
!!LO:TX:b:i:t=calando.	.
8.gg#L)	black
(16g#k	black
8.gg#)	black
(16g#k	black
8.gg#)	black
(16g#Jk	black
=25	=25
*	*
!!LO:TX:a:i:t=a	.
8.gg#L)	black
(16aaJk	black
4.ff#	black
.	.
*	*
8gg#	black
=26	=26
*	*
8.eeL	black
16gg#Jk	black
4cc#	black
*	*
4ee	black
=27	=27
*	*
8gg#''L)	black
16r	.
(16aaJk	black
4ff#)	black
*	*
4gg#^	black
!!LO:LB:g=original	.
=28	=28
!!LO:TUP:a	.
*	*
(12eeL	black
12ff#	hotpink
12gg#J)	black
(8qgg#	.
4.cc#^)	black
.	.
*	*
8cc##	black
=29	=29
*	*
8dd#^L	black
8ee^J	black
!!LO:N:acc=n#	.
4cc#X^	black
4dd#^	black
*	*
=30	=30
8b#^L	black
8dd#^J	black
8g#^	black
8r	.
(4anT^	black
=31	=31
*	*
forza.	.
8g#''L)	black
16r	.
(16f#Jk	black
4d#)	black
*	*
4g#	black
=32	=32
*	*
(8qg#	.
2c#^)	black
*	*
.	.
=:|!	=:|!
*>C	*
!!LO:TX:a:i:t=gajo.	.
(4c#	black
=33	=33
*	*
8cc#L	black
8dd#J	black
4.ee	black
.	.
*	*
8cc#)	black
!!LO:LB:g=original	.
=34	=34
*	*
(8bL	black
8g#J	black
2e^)	black
*	*
.	.
=35	=35
*	*
(8cc#L	black
8dd#J	black
4ee')	black
*	*
(8qff#	.
(8eeL)	black
8cc#J	black
=36	=36
*	*
8bL	black
8g#J)	black
[2e^	black
*	*
.	.
=37	=37
*	*
4c#	black
4B	black
4B	black
=38	=38
4c#^	black
4B	black
4B	black
=39	=39
4c#^	black
4B	black
4B	black
=40	=40
*	*
4c#	black
*	*
4ryy	.
4r	.
*	*
*	*
!!LO:LB:g=original	.
=41	=41
(8ee#L	black
8ff##J	black
4.gg#^	black
.	.
*	*
8ee#)	black
=42	=42
*	*
(8dd#L	black
8b#J)	black
2g#^	black
*	*
.	.
=43	=43
*	*
(8ee#L	black
8ff##J	black
4gg#)	black
*	*
(8qaa#	.
(8gg#L)	black
8ee#J)	black
=44	=44
*	*
(8dd#L	black
8b#J	black
*	*
[>2g#^)	black
.	.
=45	=45
*	*
4e#	black
4d#	black
4d#	black
=46	=46
4e#^	black
4d#	black
4d#	black
!!LO:LB:g=original	.
=47	=47
4e#^	black
4d#	black
4d#	black
=48	=48
4e#^	black
4d#	black
8d#L	black
8c#J	black
=49	=49
voce.	.
4B#<	black
4A#<	black
8B#<L	black
8c#<J	black
=50	=50
8d#L	black
8B#J	black
4.c#^	black
legato.	.
8A#<	black
=51	=51
!!LO:TUP:b	.
12B#<L	black
12c#<	hotpink
12B#<J	hotpink
4A#<	black
8B#<L	black
8c#<J	black
=52	=52
(12d#L	black
12f#	black
12eJ)	hotpink
2d#	black
!!LO:LB:g=original	.
=53	=53
!!LO:TUP:b	.
(12B#<L	black
12c#<	hotpink
12B#<J)	hotpink
4A#<	black
(8B#<L	black
8c#<J	black
=54	=54
8d#L	black
8B#	black
(8qd#	.
8c#)	black
8B#	black
8c#	black
8A#J)	black
=55	=55
!!LO:TUP:b	.
(>12B#<L	black
12c#<	hotpink
12B#<J)	hotpink
4A#<	black
4ryy	.
*	*
=56	=56
12g#'L	black
12g#'	black
12g#'J	black
4g#	black
(4g#^	black
=57	=57
*	*
8gg#L)	black
16r	.
(16aaJk	black
4.ff#	black
.	.
*	*
8gg#)	black
=58	=58
*	*
(8.eeL	black
16gg#Jk	black
4cc#	black
*	*
4ee	black
!!LO:LB:g=original	.
=59	=59
*	*
8.gg#L)	black
(16aaJk	black
*	*
4ff#	black
4gg#^)	black
=60	=60
*	*
!!LO:TUP:a	.
(12eeL	black
12ff#	hotpink
12gg#J)	black
*	*
(8qgg#	.
4.cc#)	black
.	.
(8cc##	black
=61	=61
*	*
8dd#''L)	black
16rdd	.
(16eeJk	black
*	*
!!LO:N:acc=n#	.
4.cc#X	black
.	.
8dd#	black
=62	=62
*	*
8.b#L	black
16dd#Jk	black
4g#)	black
*	*
(4an^T	black
=63	=63
*	*
forza.	.
8g#L)	black
16r	.
(16f#Jk	black
*	*
4d#)	black
4g#^	black
=64	=64
*	*
(8qg#	.
2c#^)	black
*	*
.	.
(>4g#	black
=65	=65
*	*
!!LO:TX:b:i:t=rubato.	.
8gg#'L	black
8aa'J	black
4ff#'	black
*	*
4gg#'	black
!!LO:LB:g=original	.
=66	=66
*	*
8ee'L	black
8gg#'J	black
4cc#'	black
*	*
4ee')	black
=67	=67
*	*
!!LO:TUP:a	.
(12gg#L	black
(8qbb	.
12aa)	hotpink
24raa	.
24gg#Jk)	black
4dd#	black
*	*
4gg#^	black
(8qgg#	.
=68	=68
*	*
!!LO:TUP:a	.
(12eeL)	black
12ff#	hotpink
12gg#J)	black
(8qgg#	.
4.cc#)	black
*	*
.	.
8cc##	black
=69	=69
*	*
(8dd#'L	black
16rdd	.
16ee'Jk	black
!!LO:N:acc=n#	.
4cc#X'	black
*	*
4dd#'	black
=70	=70
*	*
8b#'L	black
16rdd	.
16dd#'Jk	black
!!	.
4g#)	black
*	*
(4an^T	black
=71	=71
*	*
forza.	.
8g#L)	black
16r	.
(16f#Jk	black
4d#)	black
*	*
4g#^	black
=72	=72
*	*
(8qg#	.
2.c#^;)	black
.	.
==	==
*-	*-
!!!RDF**kern:	
!!!RDF**kern:	
!!!SMS:	
!!!ENC:	
!!!END:	
!!!EEV:	
